images/noun_65754_cc.svg

<svg xmlns="http://www.w3.org/2000/svg" viewBox="0 0 100 125"><path fill="none" d="M93.02 15.996H6.036v49.026h86.986V15.996h-.002zM42.972 41.031h4.169v1.462h-4.169v-1.462zm-8.575-2.409h4.169v1.462h-4.169v-1.462zm7.575 2.409v1.462h-23.71v-1.462h23.71zm-8.574-.947H18.262v-1.463h15.136v1.463zM13.066 21.332h4.169v1.462h-4.169v-1.462zm0 2.462h10.391v1.463H13.066v-1.463zm0 2.463h13.855v1.462H13.066v-1.462zm0 2.462h10.391v1.463H13.066v-1.463zm0 2.463h10.391v1.462H13.066v-1.462zm0 2.462h4.169v1.463h-4.169v-1.463zm0 2.462h6.97v1.462h-6.97v-1.462zm0 2.515h4.169v1.463h-4.169v-1.463zm0 2.41h4.169v1.462h-4.169v-1.462zm0 2.462h4.169v1.463h-4.169v-1.463zm0 2.463H46.28v1.462H13.066v-1.462zm0 2.462h4.169v1.463h-4.169v-1.463zm0 2.463h20.331v1.463H13.066v-1.463zm-2.264-29.549h1.264v1.462h-1.264v-1.462zm1.265 38.398h-1.265v-1.463h1.265v1.463zm0-2.462h-1.265v-1.461h1.265v1.461zm0-2.461h-1.265v-1.464h1.265v1.464zm0-2.463h-1.265v-1.463h1.265v1.463zm0-2.463h-1.265v-1.463h1.265v1.463zm0-2.463h-1.265v-1.462h1.265v1.462zm0-2.462h-1.265v-1.463h1.265v1.463zm0-2.463h-1.265v-1.462h1.265v1.462zm0-2.462h-1.265v-1.463h1.265v1.463zm0-2.463h-1.265v-1.462h1.265v1.462zm0-2.461h-1.264v-.001h-.001v-1.463h1.264v.001h.001v1.463zm0-2.463h-1.265v-1.462h1.265v1.462zm0-2.462h-1.265v-1.463h1.265v1.463zm0-2.463h-1.265v-1.462h1.265v1.462zm0-2.462h-1.265v-1.463h1.265v1.463zm7.969 34.473h-6.97v-1.463h6.97v1.463zm1.556-2.462h-8.526v-1.461h8.526v1.461zm8.525-2.461H13.066v-1.464h17.051v1.464zm5.239 0h-4.17v-1.463h4.17v1.463zm10.925-4.926H18.262v-1.463h28.019v1.463zm5.158-4.925H18.262v-1.463h33.177v1.463zm5.168 0h-4.168v-1.463h4.168v1.463z"/><circle fill="none" cx="49.528" cy="72.829" r="1.847"/><path d="M12.066 33.643h-1.264v1.463h.001v.001h1.264v-1.463h-.001zm19.121 19.701h-.001v1.463h4.17v-1.463h-.001zm11.785-12.313h4.169v1.462h-4.169zm-8.575-2.409h4.169v1.462h-4.169zm-21.331-17.29h4.169v1.462h-4.169zm0 12.312h4.169v1.463h-4.169zm0 4.977h4.169v1.463h-4.169zm0 2.41h4.169v1.462h-4.169zm0-4.925h6.97v1.462h-6.97zm5.196 3.978h15.136v-1.463H18.262zm0 .947h23.71v1.462h-23.71zm-5.196 2.462h4.169v1.463h-4.169zm0 4.925h4.169v1.463h-4.169zm39.373-4.925h4.168v1.463h-4.168zm-34.177 0h33.177v1.463H18.262zm-5.196 2.463H46.28v1.462H13.066zm5.196 2.462v1.463h28.019v-1.463h-.001zm-5.196 2.463h20.331v1.463H13.066zm0 2.462h17.051v1.464H13.066zm.001 2.464h-.001v1.461h8.526v-1.461h-.001zm-.001 2.461h6.97v1.463h-6.97zm0-34.474h10.391v1.463H13.066zm0 2.463h13.855v1.462H13.066zm0 2.462h10.391v1.463H13.066zm0 2.463h10.391v1.462H13.066zm-1-8.388v-1.462h-1.264v1.462h.001zm-1.263 1h-.001v1.463h1.265v-1.463h-.001zm0 2.463h-.001v1.462h1.265v-1.462h-.001zm0 2.462h-.001v1.463h1.265v-1.463h-.001zm0 2.463h-.001v1.462h1.265v-1.462h-.001zm0 4.924h-.001v1.462h1.265v-1.462h-.001zm0 2.462h-.001v1.463h1.265v-1.463h-.001zm0 2.463h-.001v1.462h1.265v-1.462h-.001zm0 2.462h-.001v1.463h1.265v-1.463h-.001zm0 2.463h-.001v1.462h1.265v-1.462h-.001zm0 2.462h-.001v1.463h1.265v-1.463h-.001zm0 2.463h-.001v1.463h1.265v-1.463h-.001zm0 2.462h-.001v1.464h1.265v-1.464h-.001zm0 2.464h-.001v1.461h1.265v-1.461h-.001zm0 2.461h-.001v1.462h1.265v-1.462h-.001z"/><path d="M94.195 12.179H4.939c-1.563 0-2.91 1.189-2.91 2.752v59.607c0 1.563 1.347 2.877 2.91 2.877h35.146c-.041.896-.321 4.753-2.155 6.623-1.445 1.473-3.453 2.854-2.669 3.563.19.436 1.091.688 3.14.688h23.123c2.334 0 3.149-.382 3.158-.953h-.08v-.188h-.082c-.104-.77-1.662-1.907-2.84-3.105-1.834-1.87-2.113-5.727-2.154-6.623H94.2c1.563 0 2.829-1.313 2.829-2.877v-59.61c-.002-1.565-1.269-2.754-2.834-2.754zM49.528 74.676a1.844 1.844 0 01-1.847-1.846 1.846 1.846 0 113.694 0 1.844 1.844 0 01-1.847 1.846zm43.495-9.656h-.002v.002H6.036V15.996h86.988V65.02z"/><path d="M93.021 15.996h.002v49.023h-.002z"/><text y="115" font-size="5" font-weight="bold" font-family="'Helvetica Neue', Helvetica, Arial-Unicode, Arial, Sans-serif">Created by Wilson Joseph</text><text y="120" font-size="5" font-weight="bold" font-family="'Helvetica Neue', Helvetica, Arial-Unicode, Arial, Sans-serif">from the Noun Project</text></svg>

<svg xmlns="http://www.w3.org/2000/svg" xmlns:xlink="http://www.w3.org/1999/xlink" version="1.1" x="0px" y="0px" viewBox="0 0 100 125" enable-background="new 0 0 100 100" xml:space="preserve"><g><path fill="none" d="M93.02,15.996H6.036V65.02v0.002H93.02h0.002V65.02V15.996H93.02z M42.972,41.031h4.169v1.462h-4.169V41.031z    M34.397,38.622h4.169v1.462h-4.169V38.622z M41.972,41.031v1.462h-23.71v-1.462H41.972z M33.398,40.084L33.398,40.084H18.262   v-1.463h15.136V40.084z M13.066,21.332h4.169v1.462h-4.169V21.332z M13.066,23.794h10.391v1.463H13.066V23.794z M13.066,26.257   h13.855v1.462H13.066V26.257z M13.066,28.719h10.391v1.463H13.066V28.719z M13.066,31.182h10.391v1.462H13.066V31.182z    M13.066,33.644h4.169v1.463h-4.169V33.644z M13.066,36.106h6.97v1.462h-6.97V36.106z M13.066,38.621h4.169v1.463h-4.169V38.621z    M13.066,41.031h4.169v1.462h-4.169V41.031z M13.066,43.493h4.169v1.463h-4.169V43.493z M13.066,45.956H46.28v1.462H13.066V45.956z    M13.066,48.418h4.169v1.463h-4.169V48.418z M13.066,50.881h20.331v1.463H13.066V50.881z M10.802,21.332L10.802,21.332h1.264v1.462   h-1.263h-0.001V21.332z M12.067,59.73L12.067,59.73h-1.264h-0.001v-1.463h0.001h1.263h0.001V59.73z M12.067,57.268L12.067,57.268   h-1.264h-0.001v-1.461h0.001h1.263h0.001V57.268z M12.067,54.807L12.067,54.807h-1.264h-0.001v-1.464h0.001h1.263h0.001V54.807z    M12.067,52.344L12.067,52.344h-1.264h-0.001v-1.463h0.001h1.263h0.001V52.344z M12.067,49.881L12.067,49.881h-1.264h-0.001v-1.463   h0.001h1.263h0.001V49.881z M12.067,47.418L12.067,47.418h-1.264h-0.001v-1.462h0.001h1.263h0.001V47.418z M12.067,44.956   L12.067,44.956h-1.264h-0.001v-1.463h0.001h1.263h0.001V44.956z M12.067,42.493L12.067,42.493h-1.264h-0.001v-1.462h0.001h1.263   h0.001V42.493z M12.067,40.031L12.067,40.031h-1.264h-0.001v-1.463h0.001h1.263h0.001V40.031z M12.067,37.568L12.067,37.568h-1.264   h-0.001v-1.462h0.001h1.263h0.001V37.568z M12.067,35.107h-1.264v-0.001h-0.001v-1.463h1.264v0.001h0.001V35.107z M12.067,32.644   L12.067,32.644h-1.264h-0.001v-1.462h0.001h1.263h0.001V32.644z M12.067,30.182L12.067,30.182h-1.264h-0.001v-1.463h0.001h1.263   h0.001V30.182z M12.067,27.719L12.067,27.719h-1.264h-0.001v-1.462h0.001h1.263h0.001V27.719z M12.067,25.257L12.067,25.257h-1.264   h-0.001v-1.463h0.001h1.263h0.001V25.257z M20.036,59.73h-6.97v-1.463h6.97V59.73z M21.592,57.268L21.592,57.268h-8.525h-0.001   v-1.461h0.001h8.524h0.001V57.268z M30.117,54.807H13.066v-1.464h17.051V54.807z M35.356,54.807L35.356,54.807h-4.169h-0.001   v-1.463h0.001h4.168h0.001V54.807z M46.281,49.881L46.281,49.881H18.262v-1.463H46.28h0.001V49.881z M51.439,44.956H18.262v-1.463   h33.177V44.956z M56.607,44.956h-4.168v-1.463h4.168V44.956z"/><circle fill="none" cx="49.528" cy="72.829" r="1.847"/><polygon points="12.066,33.643 10.802,33.643 10.802,35.106 10.803,35.106 10.803,35.107 12.067,35.107 12.067,33.644    12.066,33.644  "/><polygon points="31.187,53.344 31.186,53.344 31.186,54.807 31.187,54.807 35.355,54.807 35.356,54.807 35.356,53.344    35.355,53.344  "/><rect x="42.972" y="41.031" width="4.169" height="1.462"/><rect x="34.397" y="38.622" width="4.169" height="1.462"/><rect x="13.066" y="21.332" width="4.169" height="1.462"/><rect x="13.066" y="33.644" width="4.169" height="1.463"/><rect x="13.066" y="38.621" width="4.169" height="1.463"/><rect x="13.066" y="41.031" width="4.169" height="1.462"/><rect x="13.066" y="36.106" width="6.97" height="1.462"/><polygon points="18.262,40.084 33.397,40.084 33.398,40.084 33.398,38.621 18.262,38.621  "/><rect x="18.262" y="41.031" width="23.71" height="1.462"/><rect x="13.066" y="43.493" width="4.169" height="1.463"/><rect x="13.066" y="48.418" width="4.169" height="1.463"/><rect x="52.439" y="43.493" width="4.168" height="1.463"/><rect x="18.262" y="43.493" width="33.177" height="1.463"/><rect x="13.066" y="45.956" width="33.214" height="1.462"/><polygon points="18.262,48.418 18.262,49.881 46.28,49.881 46.281,49.881 46.281,48.418 46.28,48.418  "/><rect x="13.066" y="50.881" width="20.331" height="1.463"/><rect x="13.066" y="53.343" width="17.051" height="1.464"/><polygon points="13.067,55.807 13.066,55.807 13.066,57.268 13.067,57.268 21.591,57.268 21.592,57.268 21.592,55.807    21.591,55.807  "/><rect x="13.066" y="58.268" width="6.97" height="1.463"/><rect x="13.066" y="23.794" width="10.391" height="1.463"/><rect x="13.066" y="26.257" width="13.855" height="1.462"/><rect x="13.066" y="28.719" width="10.391" height="1.463"/><rect x="13.066" y="31.182" width="10.391" height="1.462"/><polygon points="12.066,22.794 12.066,21.332 10.803,21.332 10.802,21.332 10.802,22.794 10.803,22.794  "/><polygon points="10.803,23.794 10.802,23.794 10.802,25.257 10.803,25.257 12.066,25.257 12.067,25.257 12.067,23.794    12.066,23.794  "/><polygon points="10.803,26.257 10.802,26.257 10.802,27.719 10.803,27.719 12.066,27.719 12.067,27.719 12.067,26.257    12.066,26.257  "/><polygon points="10.803,28.719 10.802,28.719 10.802,30.182 10.803,30.182 12.066,30.182 12.067,30.182 12.067,28.719    12.066,28.719  "/><polygon points="10.803,31.182 10.802,31.182 10.802,32.644 10.803,32.644 12.066,32.644 12.067,32.644 12.067,31.182    12.066,31.182  "/><polygon points="10.803,36.106 10.802,36.106 10.802,37.568 10.803,37.568 12.066,37.568 12.067,37.568 12.067,36.106    12.066,36.106  "/><polygon points="10.803,38.568 10.802,38.568 10.802,40.031 10.803,40.031 12.066,40.031 12.067,40.031 12.067,38.568    12.066,38.568  "/><polygon points="10.803,41.031 10.802,41.031 10.802,42.493 10.803,42.493 12.066,42.493 12.067,42.493 12.067,41.031    12.066,41.031  "/><polygon points="10.803,43.493 10.802,43.493 10.802,44.956 10.803,44.956 12.066,44.956 12.067,44.956 12.067,43.493    12.066,43.493  "/><polygon points="10.803,45.956 10.802,45.956 10.802,47.418 10.803,47.418 12.066,47.418 12.067,47.418 12.067,45.956    12.066,45.956  "/><polygon points="10.803,48.418 10.802,48.418 10.802,49.881 10.803,49.881 12.066,49.881 12.067,49.881 12.067,48.418    12.066,48.418  "/><polygon points="10.803,50.881 10.802,50.881 10.802,52.344 10.803,52.344 12.066,52.344 12.067,52.344 12.067,50.881    12.066,50.881  "/><polygon points="10.803,53.343 10.802,53.343 10.802,54.807 10.803,54.807 12.066,54.807 12.067,54.807 12.067,53.343    12.066,53.343  "/><polygon points="10.803,55.807 10.802,55.807 10.802,57.268 10.803,57.268 12.066,57.268 12.067,57.268 12.067,55.807    12.066,55.807  "/><polygon points="10.803,58.268 10.802,58.268 10.802,59.73 10.803,59.73 12.066,59.73 12.067,59.73 12.067,58.268 12.066,58.268     "/><path d="M94.195,12.179h-43.88H48.82H4.939c-1.563,0-2.91,1.189-2.91,2.752v54.092v0.189v5.012v0.314   c0,1.563,1.347,2.877,2.91,2.877h35.146c-0.041,0.896-0.321,4.753-2.155,6.623c-1.445,1.473-3.453,2.854-2.669,3.563   c0.19,0.436,1.091,0.688,3.14,0.688c4.521,0,9.416,0,11.208,0c0.453,0,0.707,0,0.707,0c1.792,0,6.688,0,11.208,0   c2.334,0,3.149-0.382,3.158-0.953h-0.08v-0.188H64.52c-0.104-0.77-1.662-1.907-2.84-3.105c-1.834-1.87-2.113-5.727-2.154-6.623   H94.2c1.563,0,2.829-1.313,2.829-2.877v-0.314v-5.012v-0.189V14.933C97.027,13.368,95.76,12.179,94.195,12.179z M49.528,74.676   c-1.021,0-1.847-0.824-1.847-1.846s0.826-1.848,1.847-1.848c1.02,0,1.847,0.826,1.847,1.848   C51.376,73.852,50.548,74.676,49.528,74.676z M93.023,65.02h-0.002v0.002H93.02H6.036V65.02V15.996H93.02h0.002h0.002V65.02z"/><rect x="93.021" y="15.996" fill="#000000" width="0.002" height="49.023"/></g><text x="0" y="115" fill="#000000" font-size="5px" font-weight="bold" font-family="'Helvetica Neue', Helvetica, Arial-Unicode, Arial, Sans-serif">Created by Wilson Joseph</text><text x="0" y="120" fill="#000000" font-size="5px" font-weight="bold" font-family="'Helvetica Neue', Helvetica, Arial-Unicode, Arial, Sans-serif">from the Noun Project</text></svg>
